packages/core/assets/Icons/right_panel_close_filled.svg

<svg viewBox="0 0 20 20" fill="none" xmlns="http://www.w3.org/2000/svg">
<path d="M6.25 12.3333C6.25 12.5278 6.33333 12.6597 6.5 12.7292C6.66667 12.7986 6.81944 12.7639 6.95833 12.625L9 10.5833C9.16667 10.4167 9.25 10.2222 9.25 10C9.25 9.77778 9.16667 9.58333 9 9.41667L6.95833 7.375C6.81944 7.23611 6.66667 7.20139 6.5 7.27083C6.33333 7.34028 6.25 7.47222 6.25 7.66667V12.3333ZM4.16667 17.5C3.70833 17.5 3.31597 17.3368 2.98958 17.0104C2.66319 16.684 2.5 16.2917 2.5 15.8333V4.16667C2.5 3.70833 2.66319 3.31597 2.98958 2.98958C3.31597 2.66319 3.70833 2.5 4.16667 2.5H15.8333C16.2917 2.5 16.684 2.66319 17.0104 2.98958C17.3368 3.31597 17.5 3.70833 17.5 4.16667V15.8333C17.5 16.2917 17.3368 16.684 17.0104 17.0104C16.684 17.3368 16.2917 17.5 15.8333 17.5H4.16667ZM11.6667 15.8333V4.16667H4.16667V15.8333H11.6667Z" fill="currentColor"/>
</svg>

<svg xmlns="http://www.w3.org/2000/svg" width="20" height="20" fill="none" viewBox="0 0 20 20">
  <path fill="#201F1F" d="M6.25 12.333c0 .195.083.327.25.396.167.07.32.035.458-.104L9 10.583A.8.8 0 0 0 9.25 10 .8.8 0 0 0 9 9.417L6.958 7.375c-.139-.139-.291-.174-.458-.104-.167.07-.25.201-.25.396v4.666ZM4.167 17.5c-.459 0-.851-.163-1.177-.49a1.605 1.605 0 0 1-.49-1.177V4.167c0-.459.163-.851.49-1.177.326-.327.718-.49 1.177-.49h11.666c.459 0 .851.163 1.177.49.327.326.49.718.49 1.177v11.666c0 .459-.163.851-.49 1.177-.326.327-.718.49-1.177.49H4.167Zm7.5-1.667V4.167h-7.5v11.666h7.5Z"/>
</svg>
